; generated by Slic3r Prusa Edition 1.38.5-prusa3d-win64 on 2018-03-16 at 14:03:25

; 

; external perimeters extrusion width = 0.45mm
; perimeters extrusion width = 0.45mm
; infill extrusion width = 0.45mm
; solid infill extrusion width = 0.45mm
; top infill extrusion width = 0.40mm
; first layer extrusion width = 0.70mm

M190 S112 ; set bed temperature and wait for it to be reached
M104 S260 ; set temperature
; 12" Pegasus 1.75mm ABS for .40mm e3dv6 3/12/2017 
G1 Z5 F50 ; lift nozzle
G28 ; home all axes
G29 ; auto level
; Filament gcode
M109 S260 ; set temperature and wait for it to be reached
G21 ; set units to millimeters
G90 ; use absolute coordinates
M82 ; use absolute distances for extrusion
G92 E0
M106 S89.25
;LAYER:0
G1 E-1.00000 F2400.00000
G92 E0
G1 Z0.350 F6000.000
G1 X124.571 Y136.531 F6000.000
G1 E1.00000 F2400.00000
G1 F1800
G1 X125.920 Y136.376 E1.12352
G1 X172.006 Y136.375 E5.31409
G1 X173.214 Y136.487 E5.42438
G1 X174.381 Y136.818 E5.53466
G1 X175.474 Y137.359 E5.64552
G1 X176.444 Y138.087 E5.75580
G1 X177.265 Y138.979 E5.86608
G1 X177.910 Y140.006 E5.97637
G1 X178.357 Y141.134 E6.08665
G1 X178.591 Y142.330 E6.19751
G1 X178.625 Y157.032 E7.53432
G1 X178.512 Y158.220 E7.64288
G1 X178.032 Y159.739 E7.78766
G1 X177.205 Y161.099 E7.93244
G1 X176.076 Y162.222 E8.07722
G1 X174.713 Y163.044 E8.22200
G1 X173.423 Y163.470 E8.34552
G1 X172.073 Y163.624 E8.46903
G1 X125.600 Y163.613 E12.69486
G1 X124.705 Y163.497 E12.77690
G1 X123.840 Y163.263 E12.85836
G1 X123.009 Y162.911 E12.94041
G1 X122.234 Y162.450 E13.02245
G1 X121.533 Y161.892 E13.10391
G1 X120.909 Y161.240 E13.18596
G1 X120.381 Y160.509 E13.26800
G1 X119.956 Y159.713 E13.35004
G1 X119.542 Y158.479 E13.46838
G1 X119.378 Y157.194 E13.58615
G1 X119.375 Y142.968 E14.87969
G1 X119.445 Y142.043 E14.96404
G1 X119.616 Y141.229 E15.03974
G1 X119.889 Y140.442 E15.11543
G1 X120.255 Y139.701 E15.19055
G1 X120.714 Y139.007 E15.26625
G1 X121.256 Y138.375 E15.34194
G1 X121.874 Y137.817 E15.41764
G1 X122.551 Y137.344 E15.49276
G1 X123.287 Y136.956 E15.56845
G1 X124.514 Y136.550 E15.68594
G1 E14.68594 F2400.00000
G92 E0
G1 X123.734 Y139.567 F6000.000
G1 E1.00000 F2400.00000
G1 F1800
G1 X124.177 Y139.303 E1.04696
G1 X124.683 Y139.094 E1.09670
G1 X125.463 Y138.938 E1.16909
G1 X172.605 Y138.944 E5.45562
G1 X173.269 Y139.079 E5.51724
G1 X173.912 Y139.349 E5.58069
G1 X174.375 Y139.651 E5.63097
G1 X175.243 Y140.498 E5.74124
G1 X175.694 Y141.171 E5.81488
G1 X175.942 Y141.801 E5.87644
G1 X176.062 Y142.463 E5.93763
G1 X176.030 Y157.823 E7.33430
G1 X175.903 Y158.325 E7.38143
G1 X175.694 Y158.831 E7.43117
G1 X175.242 Y159.502 E7.50474
G1 X174.266 Y160.433 E7.62736
G1 X173.823 Y160.697 E7.67432
G1 X173.317 Y160.906 E7.72407
G1 X172.537 Y161.062 E7.79644
G1 X125.463 Y161.062 E12.07680
G1 X124.680 Y160.905 E12.14945
G1 X124.111 Y160.663 E12.20570
G1 X123.597 Y160.325 E12.26156
G1 X122.567 Y159.266 E12.39597
G1 X122.303 Y158.823 E12.44286
G1 X122.094 Y158.317 E12.49261
G1 X121.938 Y157.536 E12.56502
G1 X121.959 Y142.267 E13.95342
G1 X122.094 Y141.682 E14.00808
G1 X122.306 Y141.169 E14.05851
G1 X122.758 Y140.498 E14.13208
G1 X123.690 Y139.609 E14.24925
G1 X124.088 Y140.083 F6000.000
G1 F1800
G1 X124.439 Y139.871 E14.28654
G1 X124.893 Y139.683 E14.33126
G1 X125.494 Y139.563 E14.38695
G1 X172.573 Y139.569 E18.66782
G1 X173.059 Y139.668 E18.71291
G1 X173.602 Y139.892 E18.76632
G1 X173.963 Y140.122 E18.80526
G1 X174.784 Y140.923 E18.90950
G1 X175.127 Y141.436 E18.96564
G1 X175.334 Y141.949 E19.01599
G1 X175.437 Y142.493 E19.06629
G1 X175.415 Y157.711 E20.45005
G1 X175.316 Y158.109 E20.48734
G1 X175.128 Y158.563 E20.53205
G1 X174.784 Y159.076 E20.58824
G1 X173.912 Y159.917 E20.69839
G1 X173.561 Y160.129 E20.73568
G1 X173.107 Y160.317 E20.78040
G1 X172.506 Y160.437 E20.83609
G1 X125.494 Y160.437 E25.11087
G1 X124.895 Y160.318 E25.16641
G1 X124.384 Y160.100 E25.21694
G1 X123.973 Y159.825 E25.26189
G1 X123.082 Y158.911 E25.37791
G1 X122.871 Y158.561 E25.41512
G1 X122.683 Y158.107 E25.45984
G1 X122.563 Y157.506 E25.51553
G1 X122.576 Y142.369 E26.89192
G1 X122.682 Y141.895 E26.93611
G1 X122.872 Y141.437 E26.98118
G1 X123.216 Y140.924 E27.03737
G1 X124.045 Y140.124 E27.14207
G1 X124.447 Y140.595 F6000.000
G1 F1800
G1 X124.702 Y140.438 E27.16935
G1 X125.104 Y140.272 E27.20890
G1 X125.525 Y140.188 E27.24789
G1 X172.538 Y140.194 E31.52275
G1 X172.897 Y140.272 E31.55618
G1 X173.298 Y140.438 E31.59563
G1 X173.553 Y140.595 E31.62292
G1 X174.324 Y141.347 E31.72082
G1 X174.563 Y141.704 E31.75988
G1 X174.728 Y142.104 E31.79923
G1 X174.812 Y142.525 E31.83822
G1 X174.798 Y157.603 E33.20928
G1 X174.729 Y157.894 E33.23648
G1 X174.563 Y158.296 E33.27602
G1 X174.324 Y158.653 E33.31508
G1 X173.553 Y159.405 E33.41298
G1 X173.298 Y159.562 E33.44026
G1 X172.896 Y159.728 E33.47982
G1 X172.475 Y159.812 E33.51880
G1 X125.525 Y159.812 E37.78800
G1 X125.104 Y159.728 E37.82699
G1 X124.704 Y159.563 E37.86634
G1 X124.347 Y159.324 E37.90541
G1 X123.595 Y158.553 E38.00330
G1 X123.438 Y158.298 E38.03059
G1 X123.272 Y157.896 E38.07014
G1 X123.188 Y157.475 E38.10912
G1 X123.194 Y142.466 E39.47393
G1 X123.271 Y142.106 E39.50737
G1 X123.437 Y141.704 E39.54693
G1 X123.676 Y141.347 E39.58599
G1 X124.404 Y140.637 E39.67843
G1 X124.968 Y141.004 F6000.000
G1 F1800
G1 X125.315 Y140.861 E39.71257
G1 X125.555 Y140.813 E39.73485
G1 X172.502 Y140.819 E44.00368
G1 X172.681 Y140.859 E44.02042
G1 X173.032 Y141.004 E44.05490
G1 X173.188 Y141.103 E44.07173
G1 X173.861 Y141.769 E44.15779
G1 X173.997 Y141.972 E44.18000
G1 X174.139 Y142.315 E44.21378
G1 X174.187 Y142.555 E44.23607
G1 X174.181 Y157.502 E45.59514
G1 X174.141 Y157.681 E45.61189
G1 X173.997 Y158.028 E45.64602
G1 X173.861 Y158.231 E45.66823
G1 X173.188 Y158.897 E45.75429
G1 X173.032 Y158.996 E45.77112
G1 X172.685 Y159.139 E45.80525
G1 X172.445 Y159.187 E45.82754
G1 X125.555 Y159.187 E50.09116
G1 X125.315 Y159.139 E50.11345
G1 X124.972 Y158.997 E50.14724
G1 X124.769 Y158.861 E50.16944
G1 X124.103 Y158.188 E50.25550
G1 X124.004 Y158.032 E50.27233
G1 X123.861 Y157.685 E50.30647
G1 X123.813 Y157.445 E50.32876
G1 X123.813 Y142.555 E51.68263
G1 X123.861 Y142.315 E51.70492
G1 X124.003 Y141.972 E51.73870
G1 X124.139 Y141.769 E51.76091
G1 X124.812 Y141.103 E51.84697
G1 X124.917 Y141.036 E51.85834
G1 X125.526 Y141.450 F6000.000
G1 F1800
G1 X172.474 Y141.450 E56.12735
G1 X172.812 Y141.603 E56.16106
G1 X173.397 Y142.188 E56.23633
G1 X173.562 Y142.586 E56.27551
G1 X173.550 Y157.474 E57.62929
G1 X173.397 Y157.812 E57.66300
G1 X172.812 Y158.397 E57.73827
G1 X172.414 Y158.562 E57.77745
G1 X125.526 Y158.550 E62.04097
G1 X125.188 Y158.397 E62.07468
G1 X124.603 Y157.812 E62.14995
G1 X124.438 Y157.414 E62.18913
G1 X124.438 Y142.586 E63.53742
G1 X124.603 Y142.188 E63.57660
G1 X125.188 Y141.603 E63.65187
G1 X125.470 Y141.473 E63.68012
G1 X125.564 Y142.110 F6000.000
G1 F1800
G1 X125.679 Y142.063 E63.69143
G1 X172.321 Y142.063 E67.93256
G1 X172.436 Y142.110 E67.94386
G1 X172.890 Y142.564 E68.00224
G1 X172.937 Y142.679 E68.01354
G1 X172.937 Y157.321 E69.34493
G1 X172.890 Y157.436 E69.35623
G1 X172.436 Y157.890 E69.41461
G1 X172.321 Y157.937 E69.42591
G1 X125.679 Y157.937 E73.66704
G1 X125.564 Y157.890 E73.67835
G1 X125.110 Y157.436 E73.73672
G1 X125.063 Y157.321 E73.74802
G1 X125.063 Y142.679 E75.07941
G1 X125.110 Y142.564 E75.09071
G1 X125.522 Y142.153 E75.14363
G1 X125.871 Y142.688 F6000.000
G1 F1800
G1 X172.129 Y142.688 E79.34993
G1 X172.312 Y142.871 E79.37346
G1 X172.312 Y157.129 E80.67001
G1 X172.129 Y157.312 E80.69355
G1 X125.871 Y157.312 E84.89985
G1 X125.688 Y157.129 E84.92338
G1 X125.688 Y142.871 E86.21993
G1 X125.828 Y142.730 E86.23801
G1 E85.23801 F2400.00000
G92 E0
G1 X171.650 Y156.650 F6000.000
G1 E1.00000 F2400.00000
G1 F1800
G1 X126.350 Y156.650 E5.11911
G1 X126.350 Y143.350 E6.32847
G1 X171.650 Y143.350 E10.44758
G1 X171.650 Y156.590 E11.65149
G1 X171.252 Y156.612 F6000.000
G1 X171.025 Y156.025 F6000.000
G1 F1800
G1 X126.975 Y156.025 E15.65696
G1 X126.975 Y143.975 E16.75268
G1 X171.025 Y143.975 E20.75815
G1 X171.025 Y155.965 E21.84842
G1 X170.400 Y155.400 F6000.000
G1 F1800
G1 X127.600 Y155.400 E25.74024
G1 X127.600 Y144.600 E26.72232
G1 X170.400 Y144.600 E30.61415
G1 X170.400 Y155.340 E31.59077
G1 E30.59077 F2400.00000
G92 E0
G1 X170.150 Y146.128 F6000.000
G1 E1.00000 F2400.00000
G1 F1800
G1 X169.153 Y145.131 E1.12963
G1 X168.260 Y145.131 E1.21181
G1 X169.869 Y146.740 E1.42109
G1 X169.869 Y147.634 E1.50326
G1 X167.366 Y145.131 E1.82875
G1 X166.472 Y145.131 E1.91092
G1 X169.869 Y148.528 E2.35262
G1 X169.869 Y149.421 E2.43480
G1 X165.579 Y145.131 E2.99271
G1 X164.685 Y145.131 E3.07488
G1 X169.869 Y150.315 E3.74901
G1 X169.869 Y151.209 E3.83118
G1 X163.791 Y145.131 E4.62152
G1 X162.898 Y145.131 E4.70369
G1 X169.869 Y152.102 E5.61024
G1 X169.869 Y152.996 E5.69241
G1 X162.004 Y145.131 E6.71517
G1 X161.110 Y145.131 E6.79735
G1 X169.869 Y153.890 E7.93632
G1 X169.869 Y154.783 E8.01849
G1 X160.217 Y145.131 E9.27367
G1 X159.323 Y145.131 E9.35585
G1 X169.061 Y154.869 E10.62220
G1 X168.168 Y154.869 E10.70437
G1 X158.429 Y145.131 E11.97072
G1 X157.536 Y145.131 E12.05289
G1 X167.274 Y154.869 E13.31924
G1 X166.380 Y154.869 E13.40142
G1 X156.642 Y145.131 E14.66776
G1 X155.748 Y145.131 E14.74994
G1 X165.487 Y154.869 E16.01629
G1 X164.593 Y154.869 E16.09846
G1 X154.855 Y145.131 E17.36481
G1 X153.961 Y145.131 E17.44698
G1 X163.699 Y154.869 E18.71333
G1 X162.806 Y154.869 E18.79551
G1 X153.067 Y145.131 E20.06186
G1 X152.174 Y145.131 E20.14403
G1 X161.912 Y154.869 E21.41038
G1 X161.018 Y154.869 E21.49255
G1 X151.280 Y145.131 E22.75890
G1 X150.386 Y145.131 E22.84107
G1 X160.125 Y154.869 E24.10742
G1 X159.231 Y154.869 E24.18960
G1 X149.493 Y145.131 E25.45595
G1 X148.599 Y145.131 E25.53812
G1 X158.337 Y154.869 E26.80447
G1 X157.444 Y154.869 E26.88664
G1 X147.706 Y145.131 E28.15299
G1 X146.812 Y145.131 E28.23517
G1 X156.550 Y154.869 E29.50151
G1 X155.656 Y154.869 E29.58369
G1 X145.918 Y145.131 E30.85004
G1 X145.025 Y145.131 E30.93221
G1 X154.763 Y154.869 E32.19856
G1 X153.869 Y154.869 E32.28073
G1 X144.131 Y145.131 E33.54708
G1 X143.237 Y145.131 E33.62926
G1 X152.975 Y154.869 E34.89561
G1 X152.082 Y154.869 E34.97778
G1 X142.344 Y145.131 E36.24413
G1 X141.450 Y145.131 E36.32630
G1 X151.188 Y154.869 E37.59265
G1 X150.294 Y154.869 E37.67483
G1 X140.556 Y145.131 E38.94117
G1 X139.663 Y145.131 E39.02335
G1 X149.401 Y154.869 E40.28970
G1 X148.507 Y154.869 E40.37187
G1 X138.769 Y145.131 E41.63822
G1 X137.875 Y145.131 E41.72039
G1 X147.613 Y154.869 E42.98674
G1 X146.720 Y154.869 E43.06892
G1 X136.982 Y145.131 E44.33527
G1 X136.088 Y145.131 E44.41744
G1 X145.826 Y154.869 E45.68379
G1 X144.932 Y154.869 E45.76596
G1 X135.194 Y145.131 E47.03231
G1 X134.301 Y145.131 E47.11448
G1 X144.039 Y154.869 E48.38083
G1 X143.145 Y154.869 E48.46301
G1 X133.407 Y145.131 E49.72936
G1 X132.513 Y145.131 E49.81153
G1 X142.251 Y154.869 E51.07788
G1 X141.358 Y154.869 E51.16005
G1 X131.620 Y145.131 E52.42640
G1 X130.726 Y145.131 E52.50858
G1 X140.464 Y154.869 E53.77492
G1 X139.570 Y154.869 E53.85710
G1 X129.832 Y145.131 E55.12345
G1 X128.939 Y145.131 E55.20562
G1 X138.677 Y154.869 E56.47197
G1 X137.783 Y154.869 E56.55414
G1 X128.131 Y145.217 E57.80931
G1 X128.131 Y146.111 E57.89149
G1 X136.889 Y154.869 E59.03044
G1 X135.996 Y154.869 E59.11262
G1 X128.131 Y147.004 E60.13536
G1 X128.131 Y147.898 E60.21753
G1 X135.102 Y154.869 E61.12407
G1 X134.208 Y154.869 E61.20624
G1 X128.131 Y148.792 E61.99656
G1 X128.131 Y149.685 E62.07873
G1 X133.315 Y154.869 E62.75284
G1 X132.421 Y154.869 E62.83502
G1 X128.131 Y150.579 E63.39292
G1 X128.131 Y151.473 E63.47509
G1 X131.527 Y154.869 E63.91678
G1 X130.634 Y154.869 E63.99895
G1 X128.131 Y152.366 E64.32442
G1 X128.131 Y153.260 E64.40660
G1 X129.740 Y154.869 E64.61586
G1 X128.846 Y154.869 E64.69804
G1 X127.850 Y153.872 E64.82765
M106 S252.45
;LAYER:1
G1 E63.82765 F2400.00000
G92 E0
G1 Z0.550 F6000.000
G1 X170.961 Y155.961 F6000.000
G1 E1.00000 F2400.00000
G1 F2556
G1 X127.039 Y155.961 E2.48670
G1 X127.039 Y144.039 E2.89023
G1 X170.961 Y144.039 E4.37693
G1 X170.961 Y155.901 E4.77843
G1 X171.368 Y156.368 F6000.000
G1 F2556
G1 X126.632 Y156.368 E6.29269
G1 X126.632 Y143.632 E6.72378
G1 X171.368 Y143.632 E8.23804
G1 X171.368 Y156.308 E8.66710
G1 X171.775 Y156.775 F6000.000
G1 F3150
G1 X126.225 Y156.775 E10.20891
G1 X126.225 Y143.225 E10.66756
G1 X171.775 Y143.225 E12.20938
G1 X171.775 Y156.715 E12.66600
G1 X171.377 Y156.737 F6000.000
G1 X169.975 Y155.798 F6000.000
G1 F3408
G1 X170.615 Y155.158 E12.69663
G1 X170.615 Y154.582 E12.71612
G1 X169.582 Y155.615 E12.76555
G1 X169.007 Y155.615 E12.78504
G1 X170.615 Y154.007 E12.86203
G1 X170.615 Y153.431 E12.88152
G1 X168.431 Y155.615 E12.98608
G1 X167.855 Y155.615 E13.00557
G1 X170.615 Y152.855 E13.13769
G1 X170.615 Y152.279 E13.15718
G1 X167.279 Y155.615 E13.31687
G1 X166.704 Y155.615 E13.33636
G1 X170.615 Y151.704 E13.52361
G1 X170.615 Y151.128 E13.54310
G1 X166.128 Y155.615 E13.75792
G1 X165.552 Y155.615 E13.77741
G1 X170.615 Y150.552 E14.01979
G1 X170.615 Y149.976 E14.03928
G1 X164.976 Y155.615 E14.30923
G1 X164.401 Y155.615 E14.32872
G1 X170.615 Y149.401 E14.62623
G1 X170.615 Y148.825 E14.64572
G1 X163.825 Y155.615 E14.97079
G1 X163.249 Y155.615 E14.99029
G1 X170.615 Y148.249 E15.34293
G1 X170.615 Y147.673 E15.36242
G1 X162.673 Y155.615 E15.74262
G1 X162.097 Y155.615 E15.76211
G1 X170.615 Y147.097 E16.16988
G1 X170.615 Y146.522 E16.18937
G1 X161.522 Y155.615 E16.62471
G1 X160.946 Y155.615 E16.64420
G1 X170.615 Y145.946 E17.10710
G1 X170.615 Y145.370 E17.12659
G1 X160.370 Y155.615 E17.61706
G1 X159.794 Y155.615 E17.63655
G1 X170.615 Y144.794 E18.15458
G1 X170.615 Y144.385 E18.16843
G1 X170.448 Y144.385 E18.17407
G1 X159.219 Y155.615 E18.71169
G1 X158.643 Y155.615 E18.73118
G1 X169.873 Y144.385 E19.26881
G1 X169.297 Y144.385 E19.28830
G1 X158.067 Y155.615 E19.82592
G1 X157.491 Y155.615 E19.84542
G1 X168.721 Y144.385 E20.38304
G1 X168.145 Y144.385 E20.40253
G1 X156.916 Y155.615 E20.94015
G1 X156.340 Y155.615 E20.95965
G1 X167.570 Y144.385 E21.49727
G1 X166.994 Y144.385 E21.51676
G1 X155.764 Y155.615 E22.05439
G1 X155.188 Y155.615 E22.07388
G1 X166.418 Y144.385 E22.61150
G1 X165.842 Y144.385 E22.63099
G1 X154.613 Y155.615 E23.16862
G1 X154.037 Y155.615 E23.18811
G1 X165.266 Y144.385 E23.72573
G1 X164.691 Y144.385 E23.74522
G1 X153.461 Y155.615 E24.28285
G1 X152.885 Y155.615 E24.30234
G1 X164.115 Y144.385 E24.83996
G1 X163.539 Y144.385 E24.85945
G1 X152.309 Y155.615 E25.39708
G1 X151.734 Y155.615 E25.41657
G1 X162.963 Y144.385 E25.95419
G1 X162.388 Y144.385 E25.97368
G1 X151.158 Y155.615 E26.51131
G1 X150.582 Y155.615 E26.53080
G1 X161.812 Y144.385 E27.06842
G1 X161.236 Y144.385 E27.08792
G1 X150.006 Y155.615 E27.62554
G1 X149.431 Y155.615 E27.64503
G1 X160.660 Y144.385 E28.18266
G1 X160.085 Y144.385 E28.20215
G1 X148.855 Y155.615 E28.73977
G1 X148.279 Y155.615 E28.75926
G1 X159.509 Y144.385 E29.29689
G1 X158.933 Y144.385 E29.31638
G1 X147.703 Y155.615 E29.85400
G1 X147.128 Y155.615 E29.87349
G1 X158.357 Y144.385 E30.41112
G1 X157.782 Y144.385 E30.43061
G1 X146.552 Y155.615 E30.96823
G1 X145.976 Y155.615 E30.98772
G1 X157.206 Y144.385 E31.52535
G1 X156.630 Y144.385 E31.54484
G1 X145.400 Y155.615 E32.08246
G1 X144.825 Y155.615 E32.10195
G1 X156.054 Y144.385 E32.63958
G1 X155.478 Y144.385 E32.65907
G1 X144.249 Y155.615 E33.19669
G1 X143.673 Y155.615 E33.21618
G1 X154.903 Y144.385 E33.75381
G1 X154.327 Y144.385 E33.77330
G1 X143.097 Y155.615 E34.31092
G1 X142.521 Y155.615 E34.33042
G1 X153.751 Y144.385 E34.86804
G1 X153.175 Y144.385 E34.88753
G1 X141.946 Y155.615 E35.42516
G1 X141.370 Y155.615 E35.44465
G1 X152.600 Y144.385 E35.98227
G1 X152.024 Y144.385 E36.00176
G1 X140.794 Y155.615 E36.53939
G1 X140.218 Y155.615 E36.55888
G1 X151.448 Y144.385 E37.09650
G1 X150.872 Y144.385 E37.11599
G1 X139.643 Y155.615 E37.65362
G1 X139.067 Y155.615 E37.67311
G1 X150.297 Y144.385 E38.21073
G1 X149.721 Y144.385 E38.23022
G1 X138.491 Y155.615 E38.76785
G1 X137.915 Y155.615 E38.78734
G1 X149.145 Y144.385 E39.32496
G1 X148.569 Y144.385 E39.34445
